!!!!SEGMENT: pl-sa--177-a-v-7--001-001_luna-georgius--missa-ex-d-sinfonia.krn
!!!cenid: 17xx:465
!!!COM: Luna, Georgius
!!!COM-rismID: pe41010079
!!!CDT:
!!!CNT:
!!!OPR: Missa ex D
!!!OTL: Sinfonia
!!!OMV: 001
!!!PDT:
!!!AGN: Sacred; Mass
!!!YEC: Copyright 2022 Narodowy Instytut Fryderyka Chopina (https://polishscores.org)
!!!YEM: License CC-BY-4.0 (https://creativecommons.org/licenses/by/4.0)
!!!SMS-siglum: PL-SA
!!!SMS-shelfmark: 177/A V 7
!!!SMS-shelfwork: 001-001 M
!!!SMS-variant:
!!!SMS-altvar:
!!!NIFC-rismSourceID: 1001035883
!!!NIFC-rismChildID: 1001035883
!!!NIFC-islandoraID: none
!!!URL-pdf-islandora:
!!!URL-scan: https://bc.bdsandomierz.pl/dlibra/publication/1512/edition/1480/content @EN{Scan in the Sandomierz Diocese Digital Library} @PL{Skany w portalu Cyfrowa Biblioteka Diecezjalna w Sandomierzu}
!!!IIIF:
!!!ONB-nifc: UWAGA; części Mszy: Sinfonia, Kyrie, Gloria, Patrem, Sanctus, Benedictus, Agnus, Dona. UWAGA: brak partii cornu primo, cornu secundo
!!!AIN: 3 empty 2 oboe 1 tenor 2 violn 1 vox
!!!key:
**kern	**kern	**kern	**kern	**kern	**kern	**kern	**kern	**kern	**dynam
*part9	*part8	*part7	*part6	*part5	*part4	*part3	*part2	*part1	*
*staff9	*staff8	*staff7	*staff6	*staff5	*staff4	*staff3	*staff2	*staff1	*
*Iempty	*Ivioln	*Ivioln	*Itenor	*Ivox	*Iempty	*Iempty	*Ioboe	*Ioboe	*
*I"Fundamento	*I"Violino Secundo	*I"Violino Primo	*I"Tenor	*I"Canto	*I"Clarino Secundo	*I"Clarino Primo	*I"Hobois 2do	*I"Hobois Primo	*
*I'bc	*I'vl II	*I'vl I	*I'T	*I'C	*I'clno II	*I'clno I	*I'ob II	*I'ob I	*
*clefF4	*clefG2	*clefG2	*clefC4	*clefC1	*clefG2	*clefG2	*clefG2	*clefG2	*
*	*	*	*	*	*ITrd-1c-2	*ITrd-1c-2	*	*	*
*k[f#c#]	*k[f#c#]	*k[f#c#]	*k[f#c#]	*k[f#c#]	*k[f#c#]	*k[f#c#]	*k[f#c#]	*k[f#c#]	*
*D:	*D:	*D:	*D:	*D:	*D:	*D:	*D:	*D:	*
*M4/4	*M4/4	*M4/4	*M4/4	*M4/4	*M4/4	*M4/4	*M4/4	*M4/4	*
*met(c)	*met(c)	*met(c)	*met(c)	*met(c)	*met(c)	*met(c)	*met(c)	*met(c)	*
!LO:TX:a:t=P:problem=oznaczenie tempa zamazane [przyjęto Allo zgodnie z vl I i II]	!	!	!	!	!	!	!LO:TX:a:t=P:problem=oznaczenie metryczne C z kropką	!	!
!LO:TX:i:a:B:t=All(egr)o&colon;:rj	!LO:TX:i:a:B:t=All(egr)o:rj	!LO:TX:i:a:B:t=All(egr)o:rj	!LO:TX:a:B:t=Tacet	!LO:TX:a:B:t=Tacet	!LO:TX:i:a:B:t=All(egr)o:rj	!LO:TX:i:a:B:t=All(egr)o:rj	!LO:TX:i:a:B:t=Allegro:rj	!LO:TX:a:i:B:t=Allegro:rj	!
8r	8aa\	8aa\	8ryy	8ryy	8r	8r	8aa\	8aa\	.
=1	=1	=1	=1	=1	=1	=1	=1	=1	=1
8D\L	8.aa\L	8.aa\L	1ryy	1ryy	4ff#\	4aa\	8aa\L	8aa\L	.
8E\	.	.	.	.	.	.	16ff#\L	16ff#\L	.
.	32ff#\LL	32ff#\LL	.	.	.	.	16gg\JJ	16gg\JJ	.
.	32gg\JJJ	32gg\JJJ	.	.	.	.	.	.	.
8F#\	8aa\L	8aa\L	.	.	8r	8r	8aa\L	8aa\L	.
8G\J	8bb\J	8bb\J	.	.	8gg\	8bb\	8bb\J	8bb\J	.
8D\L	8aa\L	8.aa\L	.	.	4ff#\	4aa\	8aa\L	8aa\L	.
8E\	16ff#\L	.	.	.	.	.	16ff#\L	16ff#\L	.
.	16gg\JJ	32ff#\LL	.	.	.	.	16gg\JJ	16gg\JJ	.
.	.	32gg\JJJ	.	.	.	.	.	.	.
8F#\	8aa\L	8aa\L	.	.	8r	8r	8aa\L	8aa\L	.
8G\J	8bb\J	8bb\J	.	.	8gg\	8bb\	8bb\J	8bb\J	.
=2	=2	=2	=2	=2	=2	=2	=2	=2	=2
8D\L	8aa\L	8.aa\L	1ryy	1ryy	4ff#\	4aa\	8aa\L	8aa\L	.
8E\	16ff#\L	.	.	.	.	.	16ff#\L	16ff#\L	.
.	16gg\JJ	32ff#\LL	.	.	.	.	16gg\JJ	16gg\JJ	.
.	.	32gg\JJJ	.	.	.	.	.	.	.
8F#\	8aa\L	8aa\L	.	.	8r	8r	8aa\L	8aa\L	.
8G\J	8bb\J	8bb\J	.	.	8gg\	8bb\	8bb\J	8bb\J	.
8A\L	8cc#\L	8cc#\L	.	.	8a/L	8ee\L	8cc#\L	8cc#\L	.
8D\J	8dd\J	8dd\J	.	.	16dd/L	16ff#\L	8dd\J	8dd\J	.
.	.	.	.	.	16dd/JJ	16ff#\JJ	.	.	.
8r	8r	8r	.	.	8dd\L	8ff#\L	8r	8r	.
8D/	8dd\	8dd\	.	.	8dd\J	8ff#\J	8dd\	8dd\	.
=3	=3	=3	=3	=3	=3	=3	=3	=3	=3
*	*	*	*	*	*	*2\right	*	*	*
8AA/L	16gg\LL	16gg\LL	1ryy	1ryy	2a/	2ee\	16ee\LL	16gg\LL	.
.	16ff#\JJ	16ff#\JJ	.	.	.	.	16dd\JJ	16ff#\JJ	.
8AA/	4.ee\	4.ee\	.	.	.	.	4.cc#\	4.ee\	.
8AA/	.	.	.	.	.	.	.	.	.
8AA/J	.	.	.	.	.	.	.	.	.
8AA/L	16ee\LL	16ee\LL	.	.	2a/	2ee\	16cc#\LL	16ee\LL	.
.	16dd\JJ	16dd\JJ	.	.	.	.	16b\JJ	16dd\JJ	.
8AA/	4.cc#\	4.cc#\	.	.	.	.	4.a\	4.cc#\	.
8AA/	.	.	.	.	.	.	.	.	.
8AA/J	.	.	.	.	.	.	.	.	.
=4	=4	=4	=4	=4	=4	=4	=4	=4	=4
8AA/L	16cc#\LL	16cc#\LL	1ryy	1ryy	2a/	2ee\	16a/LL	16cc#\LL	.
.	16b\JJ	16b\JJ	.	.	.	.	16g/JJ	16b\JJ	.
8AA/	4a/	4a/	.	.	.	.	4f#/	4a/	.
8AA/	.	.	.	.	.	.	.	.	.
8AA/J	8g/	8g/	.	.	.	.	8e/	8g/	.
8D\L	16f#/LL	16f#/LL	.	.	8dd\L	8ff#\L	16d/LL	16f#/LL	.
.	16e/J	16e/J	.	.	.	.	16e/J	16e/J	.
8E\	8d/J	8d/J	.	.	16dd\L	16ff#\L	8d/J	8d/J	.
.	.	.	.	.	16dd\JJ	16ff#\JJ	.	.	.
8F#\	4r	4r	.	.	8dd\L	8ff#\L	4r	4r	.
8E\J	.	.	.	.	8dd\J	8ff#\J	.	.	.
=5	=5	=5	=5	=5	=5	=5	=5	=5	=5
!	!	!	!	!	!	!	!LO:N:vis=0	!LO:N:vis=0	!
8D\L	4dd\	4dd\	1ryy	1ryy	4dd\	4ff#\	0r	0r	.
8D\	.	.	.	.	.	.	.	.	.
8D\	16dd\LL	16dd\LL	.	.	4r	4r	.	.	.
.	16ee\	16ee\	.	.	.	.	.	.	.
8D\J	16ffn\	16ffn\	.	.	.	.	.	.	.
.	16gg\JJ	16gg\JJ	.	.	.	.	.	.	.
8D\L	8aa\	8aa\	.	.	2r	2r	.	.	.
8G\	4.bb-X\	4.bb-X\	.	.	.	.	.	.	.
8Fn\	.	.	.	.	.	.	.	.	.
8E\J	.	.	.	.	.	.	.	.	.
=6	=6	=6	=6	=6	=6	=6	=6	=6	=6
8D\L	4dd\	4dd\	1ryy	1ryy	1r	1r	.	.	.
8D\	.	.	.	.	.	.	.	.	.
8D\	16dd\LL	16dd\LL	.	.	.	.	.	.	.
.	16ee\	16ee\	.	.	.	.	.	.	.
8D\J	16ffn\	16ffn\	.	.	.	.	.	.	.
.	16gg\JJ	16gg\JJ	.	.	.	.	.	.	.
8D\L	8aa\	8aa\	.	.	.	.	.	.	.
!	!	!LO:SIC:s=4.bb-X	!	!	!	!	!	!	!
!	!	!LO:N:vis=4	!	!	!	!	!	!	!
8G\	4.bb-X\	4.bb-X\	.	.	.	.	.	.	.
8Fn\	.	.	.	.	.	.	.	.	.
8E\J	.	.	.	.	.	.	.	.	.
=7	=7	=7	=7	=7	=7	=7	=7	=7	=7
!	!	!LO:SIC:s=4ffn	!	!	!	!	!	!	!
8D\L	4ffn\	4ff#\	1ryy	1ryy	2r	2r	2r	2r	.
8Fn\	.	.	.	.	.	.	.	.	.
8G\	8ee\L	8ee\L	.	.	.	.	.	.	.
8B-X\J	8dd\J	8dd\J	.	.	.	.	.	.	.
!	!	!LO:LB:g=original	!	!	!	!	!	!	!
8A\L	4cc#\	4cc#\	.	.	8r	8r	4r	4r	.
8E\J	.	.	.	.	16a/LL	16ee\LL	.	.	.
.	.	.	.	.	16a/JJ	16ee\JJ	.	.	.
8C#/L	8r	8r	.	.	8a/L	8ee\L	8r	8r	.
8AA/J	8ee\	8ee\	.	.	8a/J	8ee\J	8ee\	8ee\	.
!	!	!	!	!	!	!	!LO:LB:g=original	!	!
=8	=8	=8	=8	=8	=8	=8	=8	=8	=8
4D\	16ff#\LL	16ff#\LL	1ryy	1ryy	4dd\	4ff#\	16ff#\LL	16ff#X\LL	.
.	16ee\	16ee\	.	.	.	.	16ee\	16ee\	.
.	16dd\	16dd\	.	.	.	.	16dd\	16dd\	.
.	16cc#\JJ	16ee\JJ	.	.	.	.	16cc#\JJ	16ee\JJ	.
4D\	16dd\LL	16ff#\LL	.	.	4r	4r	16dd\LL	16ff#\LL	.
.	16ee\	16gg\	.	.	.	.	16ee\	16gg\	.
.	16ff#\	16aa\	.	.	.	.	16ff#\	16aa\	.
.	16gg\JJ	16bb\JJ	.	.	.	.	16gg\JJ	16bb\JJ	.
.	.	8qqaa/	.	.	.	.	.	.	.
4G\	8ee\	8gg\	.	.	4a/	4ee\	8ee\	8gg\	.
.	4dd\	4ff#\	.	.	.	.	4dd\	4ff#\	.
4A\	.	.	.	.	4a/	4ee\	.	.	.
.	8cc#\	8ee\	.	.	.	.	8cc#\	8ee\	.
!	!LO:LB:g=original	!	!	!	!	!	!	!LO:LB:g=original	!
=9	=9	=9	=9	=9	=9	=9	=9	=9	=9
4D\	16ff#\LL	16ff#\LL	1ryy	1ryy	4dd\	4ff#\	16ff#\LL	16ff#\LL	.
.	16ee\	16ee\	.	.	.	.	16ee\	16ee\	.
.	16dd\	16dd\	.	.	.	.	16dd\	16dd\	.
.	16cc#\JJ	16ee\JJ	.	.	.	.	16cc#\JJ	16ee\JJ	.
4D\	16dd\LL	16ff#\LL	.	.	4r	4r	16dd\LL	16ff#\LL	.
.	16ee\	16gg\	.	.	.	.	16ee\	16gg\	.
.	16ff#\	16aa\	.	.	.	.	16ff#\	16aa\	.
.	16gg\JJ	16bb\JJ	.	.	.	.	16gg\JJ	16bb\JJ	.
.	.	8qqaa/	.	.	.	.	.	.	.
4G\	8ee\	8gg\	.	.	4a/	4ee\	8ee\	8gg\	.
.	4dd\	4ff#\	.	.	.	.	4dd\	4ff#\	.
4A\	.	.	.	.	4a/	4ee\	.	.	.
.	8cc#\	8ee\	.	.	.	.	8cc#\	8ee\	.
!LO:LB:g=original	!	!	!	!	!	!	!	!	!
=10	=10	=10	=10	=10	=10	=10	=10	=10	=10
4D\	16dd\LL	8ff#\L	1ryy	1ryy	4dd\	4ff#\	16dd\LL	16dd\LL	.
.	16ff#\	.	.	.	.	.	16ff#\	16ff#\	.
.	16gg\	16gg\L	.	.	.	.	16gg\	16gg\	.
.	16aa\JJ	16aa\JJ	.	.	.	.	16aa\JJ	16aa\JJ	.
4G\	16gg\LL	16gg\LL	.	.	4r	4r	16gg\LL	16gg\LL	.
.	16ff#\	16ff#\	.	.	.	.	16ff#\	16ff#\	.
.	16ee\	16ee\	.	.	.	.	16ee\	16ee\	.
.	16dd\JJ	16dd\JJ	.	.	.	.	16dd\JJ	16dd\JJ	.
4A\	8cc#\L	8cc#\L	.	.	4a/	4ee\	8cc#\L	8cc#\L	.
.	16dd\L	16dd\L	.	.	.	.	16dd\L	16dd\L	.
.	16ee\JJ	16ee\JJ	.	.	.	.	16ee\JJ	16ee\JJ	.
4AA/	16dd\LL	16dd\LL	.	.	4r	4r	16dd\LL	16dd\LL	.
.	16cc#\	16cc#\	.	.	.	.	16cc#\	16cc#\	.
.	16b\	16b\	.	.	.	.	16b\	16b\	.
.	16a\JJ	16a\JJ	.	.	.	.	16a\JJ	16a\JJ	.
!	!	!	!	!	!	!LO:LB:g=original	!	!	!
=11	=11	=11	=11	=11	=11	=11	=11	=11	=11
!	!	!	!	!	!	!	!	!LO:TX:a:t=3	!
4D\	8f#/L	8f#/L	1ryy	1ryy	4dd\	4ff#\	0r	0r	.
.	16g/L	16g/L	.	.	.	.	.	.	.
.	16a/JJ	16a/JJ	.	.	.	.	.	.	.
4G\	16g/LL	16g/LL	.	.	4r	4r	.	.	.
.	16f#/	16f#/	.	.	.	.	.	.	.
.	16e/	16e/	.	.	.	.	.	.	.
.	16d/JJ	16d/JJ	.	.	.	.	.	.	.
4A\	8c#/L	8c#/L	.	.	4a/	4ee\	.	.	.
.	16d/L	16d/L	.	.	.	.	.	.	.
.	16e/JJ	16e/JJ	.	.	.	.	.	.	.
4AA/	16d/LL	16d/LL	.	.	4r	4r	.	.	.
.	16c#/	16c#/	.	.	.	.	.	.	.
.	16B/	16B/	.	.	.	.	.	.	.
.	16A/JJ	16A/JJ	.	.	.	.	.	.	.
!	!	!	!	!	!LO:LB:g=origina	!	!	!	!
=12	=12	=12	=12	=12	=12	=12	=12	=12	=12
!	!	!	!	!	!LO:N:vis=8	!	!	!	!
!	!	!	!	!	!LO:TX:i:a:t=Solo	!LO:TX:i:a:t=Solo	!	!	!
4D\	8d/L	8d/L	1ryy	1ryy	16dd\LL	16ff#\LL	.	.	.
!	!	!	!	!	!LO:N:vis=8	!	!	!	!
.	.	.	.	.	16ee\J	16gg\J	.	.	.
.	8d/	8d/	.	.	8ff#\J	8aa\J	.	.	.
!	!	!	!	!	!LO:N:vis=8	!	!	!	!
4r	8d/	8d/	.	.	16dd\LL	16ff#\LL	.	.	.
!	!	!	!	!	!LO:N:vis=8	!	!	!	!
.	.	.	.	.	16ee\J	16gg\J	.	.	.
.	8d/J	8d/J	.	.	8ff#\J	8aa\J	.	.	.
2r	4d/	4d/	.	.	8gg\L	8bb\L	.	.	.
.	.	.	.	.	8ff#\	8aa\	.	.	.
.	4r	4r	.	.	8ee\	8gg\	.	.	.
.	.	.	.	.	8dd\J	8ff#\J	.	.	.
=13	=13	=13	=13	=13	=13	=13	=13	=13	=13
!	!	!	!	!	!LO:N:vis=8	!	!	!	!
0r	8A/L	8A/L	1ryy	1ryy	16a\LL	16ee\LL	1r	1r	.
!	!	!	!	!	!LO:N:vis=8	!	!	!	!
.	.	.	.	.	16dd\J	16ff#\J	.	.	.
.	8A/	8A/	.	.	8ee\J	8gg\J	.	.	.
!	!	!	!	!	!LO:N:vis=8	!	!	!	!
.	8A/	8A/	.	.	16a\LL	16ee\LL	.	.	.
!	!	!	!	!	!LO:N:vis=8	!	!	!	!
.	.	.	.	.	16dd\J	16ff#\J	.	.	.
.	8A/J	8A/J	.	.	8ee\J	8gg\J	.	.	.
!	!	!LO:N:vis=4	!	!	!	!	!	!	!
.	4A/	4A/	.	.	8ff#\L	8aa\L	.	.	.
.	.	.	.	.	8ee\	8gg\	.	.	.
.	4r	4r	.	.	8dd\	8ff#\	.	.	.
.	.	.	.	.	8a\J	8ee\J	.	.	.
!	!	!LO:LB:g=original	!	!	!	!	!	!	!
=14	=14	=14	=14	=14	=14	=14	=14	=14	=14
!	!	!	!	!	!	!	!	!LO:TX:i:a:t=Solo	!
.	8d/L	8d/L	1ryy	1ryy	4dd\	4ff#\	32dd\LLL	32ff#\LLL	.
.	.	.	.	.	.	.	32ee\JJ	32gg\JJ	.
.	.	.	.	.	.	.	8.ff#\J	8.aa\J	.
.	8d/	8d/	.	.	.	.	.	.	.
.	8d/	8d/	.	.	4r	4r	32dd\LLL	32ff#\LLL	.
.	.	.	.	.	.	.	32ee\JJ	32gg\JJ	.
.	.	.	.	.	.	.	8.ff#\J	8.aa\J	.
.	8d/J	8d/J	.	.	.	.	.	.	.
.	4d/	4d/	.	.	2r	2r	8gg\L	8bb\L	.
.	.	.	.	.	.	.	8ff#\	8aa\	.
.	4r	4r	.	.	.	.	8ee\	8gg\	.
.	.	.	.	.	.	.	8dd\J	8ff#\J	.
=15	=15	=15	=15	=15	=15	=15	=15	=15	=15
1r	8A/L	8A/L	1ryy	1ryy	0r	0r	32cc#\LLL	32ee\LLL	.
.	.	.	.	.	.	.	32dd\JJ	32ff#\JJ	.
.	.	.	.	.	.	.	8.ee\J	8.gg\J	.
.	8A/	8A/	.	.	.	.	.	.	.
.	8A/	8A/	.	.	.	.	32cc#\LLL	32ee\LLL	.
.	.	.	.	.	.	.	32dd\JJ	32ff#\JJ	.
.	.	.	.	.	.	.	8.ee\J	8.gg\J	.
.	8A/J	8A/J	.	.	.	.	.	.	.
.	4A/	4A/	.	.	.	.	8ff#\L	8aa\L	.
.	.	.	.	.	.	.	8ee\	8gg\	.
.	4r	4r	.	.	.	.	8dd\	8ff#\	.
.	.	.	.	.	.	.	8cc#\J	8ee\J	.
!	!	!	!	!	!	!	!LO:LB:g=original	!	!
=16	=16	=16	=16	=16	=16	=16	=16	=16	=16
!	!LO:TX:a:t=P:problem=mixed beam	!LO:TX:a:t=P:problem=mixed beam	!	!	!	!	!LO:TX:a:t=P:problem=nowy wers -kolejność znaków&colon; cc#, ff#	!	!LO:DY:a
8r	8d/L	8d/L	1ryy	1ryy	.	.	8dd\L	8dd\L	f
8D\L	8dd\J	8dd\J	.	.	.	.	8dd\J	8dd\J	.
8B\	(>16dd\LL	(>16dd\LL	.	.	.	.	16dd\LL	16dd\LL	.
.	16cc#\)	16cc#\)	.	.	.	.	16cc#\	16cc#\	.
8A\J	(>16dd\	(>16dd\	.	.	.	.	16dd\	16dd\	.
.	16cc#\JJ)	16cc#\JJ)	.	.	.	.	16cc#\JJ	16cc#\JJ	.
8G#X\L	8dd\	8dd\	.	.	.	.	8dd\	8dd\	.
8E\	4gg#X\	4gg#X\	.	.	.	.	4gg#X\	4gg#X\	.
8E\	.	.	.	.	.	.	.	.	.
8E\J	8bb\	8bb\	.	.	.	.	8bb\	8bb\	.
!	!LO:LB:g=original	!	!	!	!	!	!	!LO:LB:g=original	!
=17	=17	=17	=17	=17	=17	=17	=17	=17	=17
8E\L	8bb\	8bb\	1ryy	1ryy	1r	1r	8bb\	8bb\	.
!	!	!LO:SIC:s=4gg#	!	!	!	!	!	!	!
8E\	4gg#X\	4gg\	.	.	.	.	4gg#X\	4gg#X\	.
8E\	.	.	.	.	.	.	.	.	.
8E\J	4dd\	4dd\	.	.	.	.	4dd\	4dd\	.
8E\L	.	.	.	.	.	.	.	.	.
8E\	4cc#\	4cc#\	.	.	.	.	4cc#\	4cc#\	.
8E\	.	.	.	.	.	.	.	.	.
8E\J	8b\	8b\	.	.	.	.	8b\	8b\	.
=18	=18	=18	=18	=18	=18	=18	=18	=18	=18
*	*Xtuplet	*Xtuplet	*	*	*	*	*Xtuplet	*Xtuplet	*
!LO:TX:a:t=P:problem=brak t. 19	!	!	!	!	!	!	!LO:TX:a:t=P:problem=niejednoznaczny zapis łuków w t. 18-19	!	!
1r	12cc#\L	(>12cc#\L	1ryy	1ryy	4a/	4ee\	12cc#\L	12cc#\L	.
.	12b\	12b\	.	.	.	.	(>12b\	12b\	.
.	12a\J	12a\J)	.	.	.	.	12a'>\J)	12a\J	.
.	4b\	4b\	.	.	4a/	4ee\	4b\	4b\	.
.	12cc#\L	12cc#\L	.	.	4a/	4ee\	12cc#\L	12cc#\L	.
.	12b\	12b\	.	.	.	.	(>12b\	12b\	.
!	!	!	!	!	!	!	!LO:TX:a:t=P:problem=kropka pomiędzy 12b a 12a	!	!
.	12a\J	12a\J	.	.	.	.	12a'>\J)	12a\J	.
.	4b\	4b\	.	.	4a/	4ee\	4b\	4b\	.
=19	=19	=19	=19	=19	=19	=19	=19	=19	=19
!LO:TX:a:t=P:problem=mixed beam	!	!	!	!	!	!	!	!	!
8AA/L	12cc#\L	12cc#\L	1ryy	1ryy	4a/	4ee\	12cc#\L	12cc#\L	.
.	12b\	12b\	.	.	.	.	(>12b\	12b\	.
8AA/	.	.	.	.	.	.	.	.	.
.	12a\J	12a\J	.	.	.	.	12a\J)	12a\J	.
8E\	4b\	4b\	.	.	4ee\	4ee\	4b\	4b\	.
8E\J	.	.	.	.	.	.	.	.	.
4AA/	4a/	4a\	.	.	8a/L	8ee\L	4a/	4a\	.
.	.	.	.	.	16a/L	16ee\L	.	.	.
.	.	.	.	.	16a/JJ	16ee\JJ	.	.	.
4r	8r	8r	.	.	4a/	4ee\	8r	8r	.
.	8ee\	8ee\	.	.	.	.	8ee\	8ee\	.
=20	=20	=20	=20	=20	=20	=20	=20	=20	=20
8AA/L	8ee\L	8.ee\L	1ryy	1ryy	4a/	4ee\	8ee\L	8ee\L	.
8BB/	16cc#\L	.	.	.	.	.	16cc#\L	16cc#\L	.
.	16dd\JJ	32cc#\LL	.	.	.	.	16dd\JJ	16dd\JJ	.
.	.	32dd\JJJ	.	.	.	.	.	.	.
8C#/	8ee\L	8ee\L	.	.	4r	4r	8ee\L	8ee\L	.
8D/J	8ff#\J	8ff#\J	.	.	.	.	8ff#\J	8ff#\J	.
8AA/L	8ee\L	8.ee\L	.	.	4a/	4ee\	8ee\L	8ee\L	.
8BB/	16cc#\L	.	.	.	.	.	16cc#\L	16cc#\L	.
.	16dd\JJ	32cc#\LL	.	.	.	.	16dd\JJ	16dd\JJ	.
.	.	32dd\JJJ	.	.	.	.	.	.	.
8C#/	8ee\L	8ee\L	.	.	4r	4r	8ee\L	8ee\L	.
8D/J	8ff#\J	8ff#\J	.	.	.	.	8ff#\J	8ff#\J	.
=21	=21	=21	=21	=21	=21	=21	=21	=21	=21
8AA/L	8ee\L	8.ee\L	1ryy	1ryy	4a/	4ee\	8ee\L	8ee\L	.
8BB/	16cc#\L	.	.	.	.	.	16cc#\L	16cc#\L	.
.	16dd\JJ	32cc#\LL	.	.	.	.	16dd\JJ	16dd\JJ	.
.	.	32dd\JJJ	.	.	.	.	.	.	.
8C#/	8ee\L	8ee\L	.	.	4r	4r	8ee\L	8ee\L	.
8D/J	8ff#\J	8ff#\J	.	.	.	.	8ff#\J	8ff#\J	.
!LO:TX:a:t=P:problem=mixed beam	!	!	!	!	!	!	!	!	!
8E\L	8g#X/L	8g#X/L	.	.	8ee\L	8ee\L	8g#X/L	8g#X/L	.
8AA/J	8a/J	8a/J	.	.	16a\L	16ee\L	8a/J	8a/J	.
.	.	.	.	.	16a\JJ	16ee\JJ	.	.	.
8r	8r	8r	.	.	8a\L	8ee\L	8r	8r	.
8AA/	8a/	8a/	.	.	8a\J	8ee\J	8a/	8a/	.
=22	=22	=22	=22	=22	=22	=22	=22	=22	=22
*	*	*	*	*	*2\right	*	*	*	*
8E\L	16dd\LL	16dd\LL	1ryy	1ryy	2ee\	2ee\	16b/LL	16dd\LL	.
.	16cc#\JJ	16cc#\JJ	.	.	.	.	16a/JJ	16cc#\JJ	.
8E\	4.b\	4.b\	.	.	.	.	4.g#X/	4.b\	.
8E\	.	.	.	.	.	.	.	.	.
8E\J	.	.	.	.	.	.	.	.	.
!	!	!LO:LB:g=original	!	!	!	!	!	!	!
8E\L	16b/LL	16b/LL	.	.	2ee\	2ee\	16g#/LL	16b/LL	.
.	16a/JJ	16a/JJ	.	.	.	.	16f#/JJ	16a/JJ	.
8E\	4.g#X/	4.g#X/	.	.	.	.	4.e/	4.g#X/	.
8E\	.	.	.	.	.	.	.	.	.
8E\J	.	.	.	.	.	.	.	.	.
!	!	!	!	!	!	!LO:LB:g=original	!LO:LB:g=original	!	!
=23	=23	=23	=23	=23	=23	=23	=23	=23	=23
!	!LO:SIC:s=16g#	!LO:SIC:s=16g#	!	!	!	!	!LO:TX:a:t=P:problem=nowy wers -kolejność znaków&colon; cc#, ff#	!	!
8E\L	16g/LL	16g/LL	1ryy	1ryy	2ee\	2ee\	8b\L	8dd\L	.
.	16f#/JJ	16f#/JJ	.	.	.	.	.	.	.
8E\	4e/	4e/	.	.	.	.	8b\	8dd\	.
8E\	.	.	.	.	.	.	8b\	8dd\	.
8E\J	8d/	8d/	.	.	.	.	8b\J	8dd\J	.
!LO:LB:g=original	!	!	!	!	!	!	!	!	!
8AA/L	16c#/LL	16c#/LL	.	.	8a/L	8ee\L	4a/	4cc#\	.
.	16B/J	16B/J	.	.	.	.	.	.	.
8BB/	8A/J	8A/J	.	.	16a/L	16ee\L	.	.	.
.	.	.	.	.	16a/JJ	16ee\JJ	.	.	.
8C#/	4r	4r	.	.	8a/L	8ee\L	4r	4r	.
8AA/J	.	.	.	.	8a/J	8ee\J	.	.	.
=24	=24	=24	=24	=24	=24	=24	=24	=24	=24
!	!	!	!	!	!	!	!LO:N:vis=0	!LO:N:vis=0	!
8AA/L	4a\	4a/	1ryy	1ryy	4a/	4ee\	0r	0r	.
8AA/	.	.	.	.	.	.	.	.	.
8AA/	16a\LL	16a/LL	.	.	4r	4r	.	.	.
.	16b\	16b/	.	.	.	.	.	.	.
8AA/J	16ccn\	16ccn/	.	.	.	.	.	.	.
.	16dd\JJ	16dd/JJ	.	.	.	.	.	.	.
8AA/L	8ee\	8ee\	.	.	2r	2r	.	.	.
8D/	4.ffn\	4.ffn\	.	.	.	.	.	.	.
8Cn/	.	.	.	.	.	.	.	.	.
8BB/J	.	.	.	.	.	.	.	.	.
!	!	!	!	!	!LO:LB:g=origina	!	!	!	!
=25	=25	=25	=25	=25	=25	=25	=25	=25	=25
!	!	!	!	!	!LO:TX:a:t=P:problem=przekreślony takt	!LO:TX:a:t=2	!	!	!
8AA/L	4a\	4a/	1ryy	1ryy	0r	0r	.	.	.
8AA/	.	.	.	.	.	.	.	.	.
8AA/	16a\LL	16a/LL	.	.	.	.	.	.	.
.	16b\	16b/	.	.	.	.	.	.	.
8AA/J	16ccn\	16ccn/	.	.	.	.	.	.	.
.	16dd\JJ	16dd/JJ	.	.	.	.	.	.	.
8AA/L	8ee\	8ee\	.	.	.	.	.	.	.
8D/	4.ffn\	4.ffn\	.	.	.	.	.	.	.
8Cn/	.	.	.	.	.	.	.	.	.
8BB/J	.	.	.	.	.	.	.	.	.
!	!LO:LB:g=original	!	!	!	!	!	!	!	!
=26	=26	=26	=26	=26	=26	=26	=26	=26	=26
8AA/L	4ccn\	4ccn\	1ryy	1ryy	.	.	2r	2r	.
!LO:SIC:s=8Cn	!	!	!	!	!	!	!	!	!
8C#/	.	.	.	.	.	.	.	.	.
8D/	8b\L	8b\L	.	.	.	.	.	.	.
8Fn/J	8a\J	8a\J	.	.	.	.	.	.	.
8E\L	4g#X/	4g#X/	.	.	.	.	4r	4r	.
8BB\J	.	.	.	.	.	.	.	.	.
8GG#X/L	8r	8r	.	.	.	.	8r	8r	.
!	!LO:TX:a:t=h	!	!	!	!	!	!	!	!
!	!LO:TX:b:t=h	!	!	!	!	!	!	!	!
8EE/J	8b\	8b\	.	.	.	.	8b\	8b/	.
!	!	!	!	!	!	!	!	!LO:LB:g=original	!
=27	=27	=27	=27	=27	=27	=27	=27	=27	=27
4AA/	16cc#\LL	16cc#X\LL	1ryy	1ryy	4a/	4ee\	16cc#\LL	16cc#\LL	.
.	16b\	16b\	.	.	.	.	16b\	16b\	.
.	16a\	16a\	.	.	.	.	16a\	16a\	.
.	16g#X\JJ	16b\JJ	.	.	.	.	16g#X\JJ	16b\JJ	.
4A\	16a\LL	16cc#\LL	.	.	4r	4r	16a\LL	16cc#\LL	.
.	16b\	16dd\	.	.	.	.	16b\	16dd\	.
.	16cc#\	16ee\	.	.	.	.	16cc#\	16ee\	.
.	16dd\JJ	16ff#\JJ	.	.	.	.	16dd\JJ	16ff#\JJ	.
4D\	8b/	8dd\	.	.	4ee\	4ee\	8b/	8dd\	.
.	4a/	4cc#\	.	.	.	.	4a/	4cc#\	.
4E\	.	.	.	.	4ee\	4ee\	.	.	.
.	8g#X/	8b\	.	.	.	.	8g#X/	8b\	.
=28	=28	=28	=28	=28	=28	=28	=28	=28	=28
4AA/	16cc#\LL	16cc#\LL	1ryy	1ryy	4a/	4ee\	16cc#/LL	16cc#\LL	.
.	16b\	16b\	.	.	.	.	16b/	16b\	.
.	16a\	16a\	.	.	.	.	16a/	16a\	.
.	16g#X\JJ	16b\JJ	.	.	.	.	16g#X/JJ	16b\JJ	.
4A\	16a\LL	16cc#\LL	.	.	4r	4r	16a/LL	16cc#\LL	.
.	16b\	16dd\	.	.	.	.	16b/	16dd\	.
.	16cc#\	16ee\	.	.	.	.	16cc#/	16ee\	.
.	16dd\JJ	16ff#\JJ	.	.	.	.	16dd/JJ	16ff#\JJ	.
4D\	8b/	8dd\	.	.	4ee\	4ee\	8b/	8dd\	.
.	4a/	4cc#\	.	.	.	.	4a/	4cc#\	.
4E\	.	.	.	.	4ee\	4ee\	.	.	.
.	8g#X/	8b\	.	.	.	.	8g#X/	8b\	.
=29	=29	=29	=29	=29	=29	=29	=29	=29	=29
4AA/	16cc#\LL	16cc#\LL	1ryy	1ryy	4a/	4ee\	16cc#/LL	16cc#\LL	.
.	16b\	16b\	.	.	.	.	16b/	16b\	.
.	16a\	16a\	.	.	.	.	16a/	16a\	.
.	16g#X\JJ	16b\JJ	.	.	.	.	16g#X/JJ	16b\JJ	.
4A\	16a\LL	16cc#\LL	.	.	4r	4r	16a/LL	16cc#\LL	.
.	16b\	16dd\	.	.	.	.	16b/	16dd\	.
.	16cc#\	16ee\	.	.	.	.	16cc#/	16ee\	.
.	16dd\JJ	16ff#\JJ	.	.	.	.	16dd/JJ	16ff#\JJ	.
!	!	!LO:LB:g=original	!	!	!	!	!	!	!
4AA/	8ee\	8gg\	.	.	4a/	4ee\	8ee\	8gg\	.
.	4dd\	4ff#\	.	.	.	.	4dd\	4ff#\	.
4AA/	.	.	.	.	4a/	4ee\	.	.	.
.	8cc#\	8ee\	.	.	.	.	8cc#\	8ee\	.
=30	=30	=30	=30	=30	=30	=30	=30	=30	=30
4D/	16ff#\LL	16ff#\LL	1ryy	1ryy	4dd\	4ff#\	16ff#\LL	16ff#\LL	.
.	16ee\	16ee\	.	.	.	.	16ee\	16ee\	.
.	16dd\	16dd\	.	.	.	.	16dd\	16dd\	.
.	16cc#\JJ	16ee\JJ	.	.	.	.	16cc#\JJ	16ee\JJ	.
4d\	16dd\LL	16ff#\LL	.	.	4r	4r	16dd\LL	16ff#\LL	.
.	16ee\	16gg\	.	.	.	.	16ee\	16gg\	.
.	16ff#\	16aa\	.	.	.	.	16ff#\	16aa\	.
.	16gg\JJ	16bb\JJ	.	.	.	.	16gg\JJ	16bb\JJ	.
4G\	8ee\	8gg\	.	.	4a/	4ee\	8ee\	8gg\	.
.	4dd\	4ff#\	.	.	.	.	4dd\	4ff#\	.
4A\	.	.	.	.	4a/	4ee\	.	.	.
.	8cc#\	8ee\	.	.	.	.	8cc#\	8ee\	.
!	!	!	!	!	!	!	!LO:LB:g=original	!	!
=31	=31	=31	=31	=31	=31	=31	=31	=31	=31
!	!	!	!	!	!	!	!LO:TX:a:t=P:problem=nowy wers -kolejność znaków&colon; cc#, ff#	!	!
8D\L	16ff#\LL	16ff#\LL	1ryy	1ryy	4dd\	4ff#\	16ff#\LL	16ff#\LL	.
.	16ee\	16ee\	.	.	.	.	16ee\	16ee\	.
8D\	16dd\	16dd\	.	.	.	.	16dd\	16dd\	.
.	16ee\JJ	16ee\JJ	.	.	.	.	16ee\JJ	16ee\JJ	.
8D\	16ff#\LL	16ff#\LL	.	.	4r	4r	16ff#\LL	16ff#\LL	.
.	16gg\	16gg\	.	.	.	.	16gg\	16gg\	.
8D\J	16aa\	16aa\	.	.	.	.	16aa\	16aa\	.
.	16bb\JJ	16bb\JJ	.	.	.	.	16bb\JJ	16bb\JJ	.
8C#/L	16ee\LL	16ee\LL	.	.	2r	2r	16ee\LL	16ee\LL	.
.	16dd\	16dd\	.	.	.	.	16dd\	16dd\	.
8C#/	16cc#\	16cc#\	.	.	.	.	16cc#\	16cc#\	.
.	16dd\JJ	16dd\JJ	.	.	.	.	16dd\JJ	16dd\JJ	.
8C#/	16ee\LL	16ee\LL	.	.	.	.	16ee\LL	16ee\LL	.
.	16ff#\	16ff#\	.	.	.	.	16ff#\	16ff#\	.
8C#/J	16gg#X\	16gg#X\	.	.	.	.	16gg#X\	16gg#X\	.
.	16aa\JJ	16aa\JJ	.	.	.	.	16aa\JJ	16aa\JJ	.
=32	=32	=32	=32	=32	=32	=32	=32	=32	=32
!	!	!	!	!	!LO:N:vis=0	!LO:N:vis=0	!	!	!
8BB/L	16dd\LL	16dd\LL	1ryy	1ryy	0r	0r	16dd\LL	16dd\LL	.
.	16cc#\	16cc#\	.	.	.	.	16cc#\	16cc#\	.
8BB/	16b\	16b\	.	.	.	.	16b\	16b\	.
.	16cc#\JJ	16cc#\JJ	.	.	.	.	16cc#\JJ	16cc#\JJ	.
8BB/	16dd\LL	16dd\LL	.	.	.	.	16dd\LL	16dd\LL	.
.	16ee\	16ee\	.	.	.	.	16ee\	16ee\	.
8BB/J	16ff#\	16ff#\	.	.	.	.	16ff#\	16ff#\	.
.	16ggn\JJ	16ggn\JJ	.	.	.	.	16ggn\JJ	16ggn\JJ	.
!	!	!	!	!	!	!	!	!LO:LB:g=original	!
8AA/L	16cc#\LL	16cc#\LL	.	.	.	.	16cc#\LL	16cc#\LL	.
.	16b\	16b\	.	.	.	.	16b\	16b\	.
8AA/	16a\	16a\	.	.	.	.	16a\	16a\	.
.	16b\JJ	16b\JJ	.	.	.	.	16b\JJ	16b\JJ	.
8AA/	16cc#\LL	16cc#\LL	.	.	.	.	16cc#\LL	16cc#\LL	.
.	16dd\	16dd\	.	.	.	.	16dd\	16dd\	.
8AA/J	16ee\	16ee\	.	.	.	.	16ee\	16ee\	.
.	16ff#\JJ	16ff#\JJ	.	.	.	.	16ff#\JJ	16ff#\JJ	.
!	!LO:LB:g=original	!	!	!	!	!	!	!	!
=33	=33	=33	=33	=33	=33	=33	=33	=33	=33
8G\L	16b\LL	16b\LL	1ryy	1ryy	.	.	16b/LL	16b/LL	.
.	16a\	16a\	.	.	.	.	16a/	16a/	.
8G\	16g\	16g\	.	.	.	.	16g/	16g/	.
.	16a\JJ	16a\JJ	.	.	.	.	16a/JJ	16a/JJ	.
8G\	16b\LL	16b\LL	.	.	.	.	16b/LL	16b\LL	.
.	16cc#\	16cc#\	.	.	.	.	16cc#/	16cc#\	.
8G\J	16dd\	16dd\	.	.	.	.	16dd/	16dd\	.
!	!	!	!	!	!	!	!	!LO:TX:a:t=P:problem=niepotrzebna kreska taktowa	!
.	16ee\JJ	16ee\JJ	.	.	.	.	16ee/JJ	16ee\JJ	.
!LO:LB:g=original	!	!	!	!	!	!	!	!	!
8F#\L	16a/LL	16a/LL	.	.	.	.	16a/LL	16a/LL	.
.	16g/	16g/	.	.	.	.	16g/	16g/	.
8F#\	16f#/	16f#/	.	.	.	.	16f#/	16f#/	.
.	16g/JJ	16g/JJ	.	.	.	.	16g/JJ	16g/JJ	.
8F#\	16a/LL	16a/LL	.	.	.	.	16a/LL	16a/LL	.
.	16b/	16b/	.	.	.	.	16b/	16b/	.
8F#\J	16cc#/	16cc#/	.	.	.	.	16cc#/	16cc#/	.
.	16dd/JJ	16dd/JJ	.	.	.	.	16dd/JJ	16dd/JJ	.
=34	=34	=34	=34	=34	=34	=34	=34	=34	=34
8G\L	8g/L	8g/L	1ryy	1ryy	1r	1r	8g/L	8g/L	.
8F#\	8f#/	8f#/	.	.	.	.	8f#/	8f#/	.
8E\	8e/	8e/	.	.	.	.	8e/	8e/	.
8D\J	8d/J	8d/J	.	.	.	.	8d/J	8d/J	.
!LO:TX:a:t=P:problem=mixed beam	!	!	!	!	!	!	!	!	!
8A\L	8a/L	8a/L	.	.	.	.	8a/L	8a/L	.
8AA/J	8A/J	8A/J	.	.	.	.	8a/J	8a/J	.
4r	4r	4r	.	.	.	.	4r	4r	.
=35	=35	=35	=35	=35	=35	=35	=35	=35	=35
!	!	!	!	!	!LO:N:vis=8	!LO:TX:a:i:t=Solo	!LO:N:vis=0	!LO:N:vis=0	!
00r	8d/L	8d/L	1ryy	1ryy	16dd\LL	16ff#\LL	0r	0r	.
!	!	!	!	!	!LO:N:vis=8	!	!	!	!
.	.	.	.	.	16ee\J	16gg\J	.	.	.
.	8d/	8d/	.	.	8ff#\J	8aa\J	.	.	.
!	!	!	!	!	!LO:N:vis=8	!	!	!	!
.	8d/	8d/	.	.	16dd\LL	16ff#\LL	.	.	.
!	!	!	!	!	!LO:N:vis=8	!	!	!	!
.	.	.	.	.	16ee\J	16gg\J	.	.	.
.	8d/J	8d/J	.	.	8ff#\J	8aa\J	.	.	.
.	4d/	4d/	.	.	8gg\L	8bb\L	.	.	.
.	.	.	.	.	8ff#\	8aa\	.	.	.
.	4r	4r	.	.	8ee\	8gg\	.	.	.
.	.	.	.	.	8dd\J	8ff#\J	.	.	.
!	!	!LO:LB:g=original	!	!	!	!	!	!	!
=36	=36	=36	=36	=36	=36	=36	=36	=36	=36
!	!	!	!	!	!LO:N:vis=8	!	!	!	!
.	8A/L	8A/L	1ryy	1ryy	16a\LL	16ee\LL	.	.	.
!	!	!	!	!	!LO:N:vis=8	!	!	!	!
.	.	.	.	.	16dd\J	16ff#\J	.	.	.
.	8A/	8A/	.	.	8ee\J	8gg\J	.	.	.
!	!	!	!	!	!LO:N:vis=8	!	!	!	!
.	8A/	8A/	.	.	16a\LL	16ee\LL	.	.	.
!	!	!	!	!	!LO:N:vis=8	!	!	!	!
.	.	.	.	.	16dd\J	16ff#\J	.	.	.
.	8A/J	8A/J	.	.	8ee\J	8gg\J	.	.	.
.	4A/	4A/	.	.	8ff#\L	8aa\L	.	.	.
.	.	.	.	.	8ee\	8gg\	.	.	.
.	4r	4r	.	.	8dd\	8ff#\	.	.	.
.	.	.	.	.	8a\J	8ee\J	.	.	.
!	!	!	!	!	!	!LO:LB:g=original	!	!	!
=37	=37	=37	=37	=37	=37	=37	=37	=37	=37
!	!	!	!	!	!	!	!LO:TX:a:t=P:problem=niejednoznaczny zapis łuków w t. 37-42	!LO:TX:i:a:t=Solo	!
.	8d/L	8d/L	1ryy	1ryy	4dd\	4ff#\	(>32dd\LLL	32ff#\LLL	.
.	.	.	.	.	.	.	32ee\JJ	32gg\JJ	.
.	.	.	.	.	.	.	8.ff#\J)	8.aa\J	.
.	8d/	8d/	.	.	.	.	.	.	.
.	8d/	8d/	.	.	4r	4r	(>32dd\LLL	32ff#\LLL	.
.	.	.	.	.	.	.	32ee\JJ	32gg\JJ	.
.	.	.	.	.	.	.	8.ff#\J)	8.aa\J	.
.	8d/J	8d/J	.	.	.	.	.	.	.
.	4d/	4d/	.	.	2r	2r	8gg\L	8bb\L	.
.	.	.	.	.	.	.	8ff#\	8aa\	.
.	4r	4r	.	.	.	.	8ee\	8gg\	.
.	.	.	.	.	.	.	8dd\J	8ff#\J	.
!	!	!	!	!	!	!	!LO:LB:g=original	!	!
=38	=38	=38	=38	=38	=38	=38	=38	=38	=38
!	!	!	!	!	!	!	!LO:TX:a:t=P:problem=nowy wers -kolejność znaków&colon; cc#, ff#	!	!
.	8A/L	8A/L	1ryy	1ryy	1r	1r	(>32cc#\LLL	(>32ee\LLL	.
.	.	.	.	.	.	.	32dd\JJ	32ff#\JJ	.
.	.	.	.	.	.	.	8.ee\J)	8.gg\J)	.
.	8A/	8A/	.	.	.	.	.	.	.
.	8A/	8A/	.	.	.	.	(>32cc#\LLL	(>32ee\LLL	.
.	.	.	.	.	.	.	32dd\JJ	32ff#\JJ	.
.	.	.	.	.	.	.	8.ee\J)	8.gg\J)	.
.	8A/J	8A/J	.	.	.	.	.	.	.
.	4A/	4A/	.	.	.	.	8ff#\L	8aa\L	.
.	.	.	.	.	.	.	8ee\	8gg\	.
.	4r	4r	.	.	.	.	8dd\	8ff#\	.
.	.	.	.	.	.	.	8cc#\J	8ee\J	.
!	!	!	!	!	!LO:LB:g=origina	!	!	!	!
=39!|:	=39	=39	=39	=39	=39	=39!|:	=39	=39	=39
!LO:TX:a:t=P:problem=znak początku repetycji	!	!	!	!	!	!LO:TX:a:t=P:problem=znak początku repetycji	!	!	!
4D/	32ff#\LLL	(>32ff#\LLL	1ryy	1ryy	2dd\	4ff#\	(>32ff#\LLL	32ff#\LLL	.
.	32ee\JJ	32ee\JJ	.	.	.	.	32ee\JJ	32ee\JJ	.
.	8.dd\J	8.dd\J)	.	.	.	.	8.dd\J)	8.dd\J	.
4d\	32ff#\LLL	(>32ff#\LLL	.	.	.	4ff#\	(>32ff#\LLL	32ff#\LLL	.
.	32ee\JJ	32ee\JJ	.	.	.	.	32ee\JJ	32ee\JJ	.
.	8.dd\J	8.dd\J)	.	.	.	.	8.dd\J)	8.dd\J	.
!	!LO:N:vis=8.	!	!	!	!	!	!	!	!
4G\	8gg\L	8gg\L	.	.	2a/	4ee\	8gg\L	8gg\L	.
.	16aa\L	16aa\L	.	.	.	.	16aa\L	16aa\L	.
.	16bb\JJ	16bb\JJ	.	.	.	.	16bb\JJ	16bb\JJ	.
4C#/	8aa\L	8aa\L	.	.	.	4ee\	8aa\L	8aa\L	.
.	8gg\J	8gg\J	.	.	.	.	8gg\J	8gg\J	.
=40	=40	=40	=40	=40	=40	=40	=40	=40	=40
4D/	(>32ff#\LLL	(>32ff#\LLL	1ryy	1ryy	2dd\	4ff#\	(>32ff#\LLL	32ff#\LLL	.
.	32ee\JJ	32ee\JJ	.	.	.	.	32ee\JJ	32ee\JJ	.
.	8.dd\J)	8.dd\J)	.	.	.	.	8.dd\J)	8.dd\J	.
4d\	32ff#\LLL	(>32ff#\LLL	.	.	.	4ff#\	(>32ff#\LLL	32ff#\LLL	.
.	32ee\JJ	32ee\JJ	.	.	.	.	32ee\JJ	32ee\JJ	.
.	8.dd\J	8.dd\J)	.	.	.	.	8.dd\J)	8.dd\J	.
!	!	!	!	!	!	!	!	!LO:LB:g=original	!
4G\	8.ee\L	8.ee\L	.	.	2a/	4ee\	8ee\L	8ee\L	.
.	.	.	.	.	.	.	16ff#\L	16ff#\L	.
.	32ff#\LL	32ff#'>\LL	.	.	.	.	16gg\JJ	16gg\JJ	.
.	32gg\JJJ	32gg\JJJ	.	.	.	.	.	.	.
!LO:TX:a:t=P:problem=znak końca repetycji	!	!	!	!	!	!LO:TX:a:t=P:problem=znak końca repetycji	!	!	!
4A\	8ff#\L	8ff#\L	.	.	.	4ee\	8ff#\L	8ff#\L	.
.	8ee\J	8ee\J	.	.	.	.	8ee\J	8ee\J	.
=41!|:	=41	=41	=41	=41	=41	=41c	=41	=41	=41
!LO:TX:a:t=P:problem=powtórzenie tt. 39-40 oznaczone znakami repetycji	!LO:TX:a:t=P:problem=brak tt. 41-42	!LO:TX:a:t=P:problem=brak tt. 41-42	!	!	!LO:TX:a:t=P:problem=brak tt. 41-42	!LO:TX:a:t=P:problem=powtórzenie tt. 39-40 oznaczone znakami repetycji	!	!LO:TX:a:t=P:problem=skreślone pół taktu	!
4D/	1r	1r	1ryy	1ryy	1r	4ff#\	(>32ff#\LLL	32ff#\LLL	.
.	.	.	.	.	.	.	32ee\JJ	32ee\JJ	.
.	.	.	.	.	.	.	8.dd\J)	8.dd\J	.
!	!	!	!	!	!	!	!	!LO:TX:a:t=P:problem=niejednoznaczny zapis łuku	!
4d\	.	.	.	.	.	4ff#\	(>32ff#\LLL	(>32ff#\LLL	.
.	.	.	.	.	.	.	32ee\JJ	32ee\JJ	.
.	.	.	.	.	.	.	8.dd\J)	8.dd\J)	.
4G\	.	.	.	.	.	4ee\	8gg\L	8gg\L	.
.	.	.	.	.	.	.	16aa\L	16aa\L	.
.	.	.	.	.	.	.	16bb\JJ	16bb\JJ	.
4C#/	.	.	.	.	.	4ee\	8aa\L	8aa\L	.
.	.	.	.	.	.	.	8gg\J	8gg\J	.
=42	=42	=42	=42	=42	=42	=42	=42	=42	=42
4D/	1r	1r	1ryy	1ryy	1r	4ff#\	32ff#\LLL	32ff#\LLL	.
.	.	.	.	.	.	.	32ee\JJ	32ee\JJ	.
.	.	.	.	.	.	.	8.dd\J	8.dd\J	.
4d\	.	.	.	.	.	4ff#\	(>32ff#\LLL	32ff#\LLL	.
.	.	.	.	.	.	.	32ee\JJ	32ee\JJ	.
.	.	.	.	.	.	.	8.dd\J)	8.dd\J	.
4G\	.	.	.	.	.	4ee\	8ee\L	8ee\L	.
.	.	.	.	.	.	.	16ff#\L	16ff#\L	.
.	.	.	.	.	.	.	16gg\JJ	16gg\JJ	.
4A\	.	.	.	.	.	4ee\	8ff#\L	8ff#\L	.
.	.	.	.	.	.	.	8ee\J	8ee\J	.
=43	=43	=43	=43	=43	=43	=43	=43	=43	=43
8D\L	16dd\LL	16dd\LL	1ryy	1ryy	8dd\L	8ff#\L	8dd\L	8ff#\L	.
.	16ddd\	16ddd\	.	.	.	.	.	.	.
8D\	16aa\	16aa\	.	.	8dd\	8ff#\	8dd\	8ff#\	.
.	16ff#\JJ	16ff#\JJ	.	.	.	.	.	.	.
8D\	16dd\LL	16dd\LL	.	.	8dd\	8ff#\	8dd\	8ff#\	.
.	16aa\	16aa\	.	.	.	.	.	.	.
8D\J	16ff#\	16ff#\	.	.	8dd\J	8ff#\J	8dd\J	8ff#\J	.
.	16dd\JJ	16dd\JJ	.	.	.	.	.	.	.
!	!LO:LB:g=original	!	!	!	!	!	!	!	!
8D\L	16a\LL	16a\LL	.	.	8dd\L	8ff#\L	8dd\L	8ff#\L	.
.	16ff#\	16ff#\	.	.	.	.	.	.	.
8D\	16dd\	16dd\	.	.	8dd\	8ff#\	8dd\	8ff#\	.
.	16a\JJ	16a\JJ	.	.	.	.	.	.	.
8D\	16f#/LL	16f#/LL	.	.	8dd\	8ff#\	8dd\	8ff#\	.
.	16a/	16a/	.	.	.	.	.	.	.
8D\J	16f#/	16f#/	.	.	8dd\J	8ff#\J	8dd\J	8ff#\J	.
.	16d/JJ	16d/JJ	.	.	.	.	.	.	.
!	!	!	!	!	!	!	!LO:LB:g=original	!	!
=44	=44	=44	=44	=44	=44	=44	=44	=44	=44
*	*^	*^	*	*	*	*	*	*	*
*	*	*^	*	*^	*	*	*	*	*	*	*
!	!	!	!	!	!	!	!	!	!	!	!LO:TX:a:t=P:problem=nowy wers -kolejność znaków&colon; cc#, ff#	!	!
4G\	4b/ 4gg/	4G/ 4d/	4raayy	4b/ 4gg/	4G/ 4d	4raayy	1ryy	1ryy	4ee\	4gg\	4ee\	4gg\	.
!	!	!	!	!	!	!	!	!	!	!LO:TX:a:t=d	!	!	!
4A\	4a/ 4cc# 4ee	4rFyy	4raayy	4a/ 4cc# 4ee	4rFyy	4raayy	.	.	4a/	4ee\	4cc#\	4ee\	.
8D\L	16ff#/	16a/	16d/	16ff#/	16a/	16d/	.	.	8dd\L	8ff#\L	8dd\L	8ff#\L	.
.	16dd\LL	16rAyy	16rffyy	16dd\LL	16rAyy	16rffyy	.	.	.	.	.	.	.
8D\	16a\	8rFyy	8rffyy	16a\	8rFyy	8rffyy	.	.	8dd\	8ff#\	8dd\	8ff#\	.
.	16f#\JJ	.	.	16f#\JJ	.	.	.	.	.	.	.	.	.
8D\	16d/LL	4rFyy	4rffyy	16d/LL	4rFyy	4rffyy	.	.	8dd\	8ff#\	8dd\	8ff#\	.
.	16a/	.	.	16a/	.	.	.	.	.	.	.	.	.
8D\J	16f#/	.	.	16f#/	.	.	.	.	8dd\J	8ff#\J	8dd\J	8ff#\J	.
.	16d/JJ	.	.	16d/JJ	.	.	.	.	.	.	.	.	.
*	*	*	*	*	*v	*v	*	*	*	*	*	*	*
*	*	*v	*v	*	*	*	*	*	*	*	*	*
*	*v	*v	*	*	*	*	*	*	*	*	*
!	!	!	!	!LO:LB:g=original	!	!	!	!	!	!
=45	=45	=45	=45	=45	=45	=45	=45	=45	=45	=45
4G\	4G/ 4d 4b 4gg	4b 4gg	4G/ 4d	1ryy	1ryy	4ee\	4gg\	4ee\	4gg\	.
4A\	4a/ 4cc# 4ee	4a/ 4cc# 4ee	2.ryy	.	.	4a/	4ee\	4cc#\	4ee\	.
4D/	4d/ 4a 4ff#	4d/ 4a 4ff#	.	.	.	4dd\	4ff#\	4dd\	4ff#\	.
4d\	4d/ 4a 4ff#	4d/ 4a 4ff#	.	.	.	4dd\	4ff#\	4dd\	4ff#\	.
=46	=46	=46	=46	=46	=46	=46	=46	=46	=46	=46
4G\	4G/ 4d 4b 4gg	4b 4gg	4G/ 4d	1ryy	1ryy	4ee\	4gg\	4ee\	4gg\	.
4A\	4a/ 4cc# 4ee	4a/ 4cc# 4ee	2.ryy	.	.	4a/	4ee\	4cc#\	4ee\	.
8D\L	8ff#\L	8ff#\L	.	.	.	8dd\L	8ff#\L	8dd\L	8ff#\L	.
16D\L	16a\L	16a\L	.	.	.	16dd\L	16ff#\L	16dd\L	16ff#\L	.
16D\JJ	16a\JJ	16a\JJ	.	.	.	16dd\JJ	16ff#\JJ	16dd\JJ	16ff#\JJ	.
8D\L	8a/L	8a/L	.	.	.	8dd\L	8ff#\L	8dd\L	8ff#\L	.
8D\J	8a/J	8a/J	.	.	.	8dd\J	8ff#\J	8dd\J	8ff#\J	.
*	*	*v	*v	*	*	*	*	*	*	*
=47	=47	=47	=47	=47	=47	=47	=47	=47	=47
4D\	4a/	4a/	1ryy	1ryy	4dd\	4ff#\	4dd\	4ff#\	.
4r	4r	4r	.	.	4r	4r	4r	4r	.
!	!	!	!	!	!	!	!LO:TX:a:t=P:problem=łuk nad i pod kreską taktową [przyjęto fermatę]	!LO:TX:a:t=P:problem=łuk nad i pod kreską taktową [przyjęto fermatę]	!
!LO:TX:a:t=P:problem=kreska taktowa koniec/początek repetycji	!LO:TX:a:t=P:problem=kreska taktowa koniec/początek repetycji	!LO:TX:a:t=P:problem=kreska taktowa koniec/początek repetycji	!	!	!LO:TX:a:t=P:problem=kreska taktowa koniec/początek repetycji	!LO:TX:a:t=P:problem=kreska taktowa koniec/początek repetycji	!LO:TX:a:t=P:problem=kreska taktowa podwójna	!LO:TX:a:t=P:problem=kreska taktowa podwójna	!
2r	2r	2r	.	.	2r	2r	2r	2r	.
==;>	==;>	==;>	==	==	==;>	==;>	==;;<	==;;<	==
*-	*-	*-	*-	*-	*-	*-	*-	*-	*-
!!!system-decoration: [(s1,s2)][(s3,s4)][(s5,s6)][(s7,s8)]s9
!!!RDF**kern: > = above
!!!RDF**kern: < = below
!!!RDF**dynam: f = "for"
!!!EED: Mateusz Mrugas
!!!EEV: 2020-10-03
!!!ENC: Andrzej Kubiczek
!!!END: 2020-05-17
